X: 5
T: The Dusty Miller
R: slip jig
M: 9/8
L: 1/8
K: Dmaj
A3 A2G A2G | A3 A2G B2d | A3 A2G A2=c | B2G G2A B2 d :|]
A2D D3 A3 | A2D D3 B2d | A2D D3 G2A | B2G G2A B2 d :|]


Tune 4323	Setting 28397

